tools/download-figma-icons/icons/outlined-large/emob-stand.svg

<svg width="64" height="64" viewBox="0 0 64 64" fill="none" xmlns="http://www.w3.org/2000/svg"><path fill-rule="evenodd" clip-rule="evenodd" d="M16 3c-1.103 0-2 .897-2 2v53.503A2.5 2.5 0 0 0 16.497 61h31.006A2.5 2.5 0 0 0 50 58.503V5c0-1.103-.897-2-2-2s-2 .897-2 2v16.502A6.505 6.505 0 0 1 39.502 28H24.505A6.512 6.512 0 0 1 18 21.495V5c0-1.103-.897-2-2-2Zm31.503 61H16.497A5.503 5.503 0 0 1 11 58.503V5c0-2.757 2.243-5 5-5s5 2.243 5 5v16.495A3.509 3.509 0 0 0 24.505 25h14.997A3.502 3.502 0 0 0 43 21.502V5c0-2.757 2.243-5 5-5s5 2.243 5 5v53.503A5.503 5.503 0 0 1 47.503 64Z" fill="currentColor"/></svg>

<svg width="64" height="64" viewBox="0 0 64 64" fill="none" xmlns="http://www.w3.org/2000/svg">
<path fill-rule="evenodd" clip-rule="evenodd" d="M16 3C14.897 3 14 3.897 14 5V58.503C14 59.88 15.12 61 16.497 61H47.503C48.88 61 50 59.88 50 58.503V5C50 3.897 49.103 3 48 3C46.897 3 46 3.897 46 5V21.502C46 25.085 43.085 28 39.502 28H24.505C20.918 28 18 25.082 18 21.495V5C18 3.897 17.103 3 16 3ZM47.503 64H16.497C13.466 64 11 61.534 11 58.503V5C11 2.243 13.243 0 16 0C18.757 0 21 2.243 21 5V21.495C21 23.428 22.572 25 24.505 25H39.502C41.431 25 43 23.431 43 21.502V5C43 2.243 45.243 0 48 0C50.757 0 53 2.243 53 5V58.503C53 61.534 50.534 64 47.503 64Z" fill="black"/>
</svg>
